X:1
T:Весна в подмосковье
T:Весна в Подмосковье
T:О. Черенцов
C:О. Черенцов
%%score { 1 | ( 2 3 ) }
L:1/8
Q:1/4=114
M:4/4
K:F
V:1 treble nm="Piano" snm="Pno."
V:2 bass 
V:3 bass 
V:1
"^Moderato"!p!"^dolce\n" z2 (!5!c2 B2 A2) | !1!F4 F4 | (F4 G3 c) | A8 | z2 (c2 B2 A2) | %5
 (!1!F4 G2 !3!A2) | (!2!A6 c2) | !1!G8 | z2 (!5!c2 B2 A2) | !2!G4 F4 | (!2!F2 EF) (G3 c) | %11
 (!4!cG A6) | z2 (f4 _ed- | d2) (g2 A2 G2) | F4 (!5!G3 !3!D) | !fermata![G,CF]8!fine! || %16
!mf![Q:1/4=144]"^Allegro" z !2!A- A2 B2 c2 | .[DB]2 z2 z2 !3!A>G | !1!Ff- f2 z d- d!1!c | %19
 !4!A>G F>c A>G F>C | !2!DF z2 z C- C2 | !2!=B,F- F!1!B, !2!_B,>F B,>A,- | A, z z2 z !2!c- c^c | %23
 !1!df- fg !4!_a>g f>c- | c>!5!d c>B A>G !2!^F>c | !4![FB]2 A2 GF- F!5!G- | %26
 G>!1!C ^D>!1!E ^F>!1!G B>=B |!f! !>!!4!c>A F>!>!c A>F c>A | z3/2 c/ B>!2!F !1!G>f- f2 | %29
 z3/2 !2!^g/ !1!a>c' !4!_e'>d' c'>a | !4!_a>g f>d- d>f- f2 | z3/2!<(! !>!f/- f2 f2 f2!<)! | %32
{/!2!^f} !3!g>g =f>f!>(! !1!d>d !3!_d>d!>)! | !>!!4!c>A F>!2!C !1!D>F A>c | %34
 !>!!1!F>!4!_A G>!>!F z4!D.C.! |] %35
V:2
!ped! [C_EF]8!ped-up! |!ped! [G,B,D]8!ped-up! |!ped! !2![F,B,-]4!ped-up!!ped! !3![E,B,]4!ped-up! | %3
!ped! [C,E,F,A,]8!ped-up! |!ped! [G,C_E]8!ped-up! |!ped! !3![A,B,D]8!ped-up! | %6
!ped! [G,B,_D]8!ped-up! |!ped! [F,A,CD]8!ped-up! | %8
!ped! !4![_E,G,C]4!ped-up!!ped! !5![D,^F,C]4!ped-up! |!ped! [D,F,=B,]8!ped-up! | %10
!ped! [_D,F,B,]4!ped-up!!ped! [C,E,B,]4!ped-up! | [C,E,F,A,]6!ped! (!5!F,G,)!ped-up! | %12
!ped! [A,C_E]4!ped-up!!ped! !4![^F,CD]4!ped-up! |!ped! (!1!E4!ped-up!!ped! !1!D4)!ped-up! | %14
!ped! [G,B,_D]4!ped-up!!ped! C,4!ped-up! |!ped! !fermata![F,,C,]8!ped-up! || %16
 !5!F,,2 F,,2 G,,2 A,,2 | B,,2 B,,2 !1!=B,,2 B,,2 | !3!C,2 C,2 ^C,2 C,2 | D,2 D,2 !2!C,2 C,2 | %20
 B,,2 B,,2 !1!A,,2 A,,2 | G,,2 G,,2 C,,2 C,,2 | F,,2 G,,2 !4!^G,,2 A,,2 | B,,2 B,,2 =B,,2 B,,2 | %24
 !2!C,2 C,2 D,2 D,,2 | !2!G,,2 A,,2 !3!B,,2 =B,,2 | C,2 z2 z4 | !1!F,,2 F,,2 _E,,2 E,,2 | %28
 D,,2 D,,2 !4!_D,,2 D,,2 | C,,2 C,,2 D,,2 D,,2 | G,,2 G,,2 !5!C,,2 E,,2 | %31
 !3!F,,2 F,,2 !2!^G,,2 A,,2 | !3!B,,2 B,,2 =B,,2 B,,2 | .C,2 z2 z4 | .!2!G,,2 [C,,C,]>!>!F,, z4 |] %35
V:3
 x8 | x8 | C,8 | x8 | x8 | x8 | x8 | x8 | x8 | x8 | x8 | x8 | x8 | [F,=B,]8 | x8 | x8 || x8 | x8 | %18
 x8 | x8 | x8 | x8 | x8 | x8 | x8 | x8 | x8 | x8 | x8 | x8 | x8 | x8 | x8 | x8 | x8 |] %35

